logos/jspm.svg

<?xml version="1.0" encoding="UTF-8"?>
<svg width="256px" height="298px" viewBox="0 0 256 298" version="1.1" xmlns="http://www.w3.org/2000/svg" xmlns:xlink="http://www.w3.org/1999/xlink" preserveAspectRatio="xMidYMid">
    <g>
        <polygon fill="#FEEA5F" points="210.74066 74.864668 127.883281 122.741921 44.9589934 74.8797764 127.873568 26.9938898"></polygon>
        <polygon fill="#E0CC41" points="104.249828 258.239798 22.0107834 210.774618 22.0107834 115.121688 104.249828 162.568535"></polygon>
        <polygon fill="#EFDB50" points="150.050689 161.648756 234.903969 112.660661 234.903969 211.846821 150.050689 260.818142"></polygon>
        <path d="M50.4350236,74.8789921 L127.881071,119.579213 L205.26463,74.8648819 L127.872,30.1565984 C110.779801,40.0277165 84.9674751,54.9351811 50.4350236,74.8789921 Z M127.658331,0 L255.987906,74.6985827 L194.749306,122.741921 L126.985071,148.646299 L63.420271,127.884353 L0,74.6885039 L127.658331,0 Z" fill="#C3C2C2"></path>
        <path d="M154.239093,253.505008 L230.715565,209.368189 L230.715565,119.973795 L154.239093,164.125732 L154.239093,253.505008 Z M126.928731,148.646299 L255.987906,74.8679055 L255.987906,224.205102 L126.928731,297.911911 L120.381865,224.205102 L126.928731,148.646299 Z" fill="#B3B3B3"></path>
        <path d="M101.558526,164.146696 L24.702085,119.805279 L24.702085,209.197657 L101.558526,253.556208 L101.558526,164.146696 Z M1.42108547e-14,74.8679055 L126.985172,148.646602 L126.928731,297.910728 L1.42108547e-14,224.770016 L1.42108547e-14,74.8679055 Z" fill="#A5A5A4"></path>
    </g>
</svg>

<svg width="256" height="298" xmlns="http://www.w3.org/2000/svg" preserveAspectRatio="xMidYMid">
	<path fill="#FEEA5F" d="m210.74 74.865-82.857 47.877L44.96 74.88l82.915-47.886z"/>
	<path fill="#E0CC41" d="m104.25 258.24-82.24-47.465v-95.653l82.24 47.447z"/>
	<path fill="#EFDB50" d="m150.05 161.649 84.854-48.988v99.186l-84.853 48.971z"/>
	<path d="m50.435 74.879 77.446 44.7 77.384-44.714-77.393-44.708-77.437 44.722ZM127.658 0l128.33 74.699-61.239 48.043-67.764 25.904-63.565-20.762L0 74.69 127.658 0Z" fill="#C3C2C2"/>
	<path d="m154.24 253.505 76.476-44.137v-89.394l-76.477 44.152v89.379Zm-27.311-104.859 129.059-73.778v149.337l-129.06 73.707-6.546-73.707 6.547-75.559Z" fill="#B3B3B3"/>
	<path d="m101.559 164.147-76.857-44.342v89.393l76.857 44.358v-89.41ZM0 74.867l126.985 73.78-.056 149.264L0 224.77V74.868Z" fill="#A5A5A4"/>
</svg>
